cli/cmd/plugin/ui/web/tanzu-ui/src/assets/workload-cluster-bg.svg

<svg width="338" height="197" viewBox="0 0 338 197" fill="none" xmlns="http://www.w3.org/2000/svg">
<path opacity="0.15" fill-rule="evenodd" clip-rule="evenodd" d="M110 159H224L338 45H224L110 159Z" fill="url(#paint0_linear_501_22470)"/>
<path opacity="0.15" fill-rule="evenodd" clip-rule="evenodd" d="M27 197H141L255 83H141L27 197Z" fill="url(#paint1_linear_501_22470)"/>
<path opacity="0.15" fill-rule="evenodd" clip-rule="evenodd" d="M0 114H114L228 0H114L0 114Z" fill="url(#paint2_linear_501_22470)"/>
<path fill-rule="evenodd" clip-rule="evenodd" d="M240.847 40.0038C240.458 40.0235 240.077 40.1207 239.726 40.2895L224.43 47.6509C223.628 48.0367 223.045 48.7663 222.847 49.6332L219.074 66.1688C218.897 66.9385 219.041 67.7466 219.471 68.4092C219.522 68.4893 219.578 68.5669 219.637 68.6417L230.225 81.9005C230.78 82.5955 231.621 83 232.512 83L249.491 82.9961C250.38 82.9967 251.222 82.5928 251.777 81.8985L262.361 68.6377C262.917 67.9424 263.125 67.0321 262.927 66.1649L259.147 49.6292C258.949 48.7623 258.366 48.0328 257.564 47.647L242.266 40.2895C241.824 40.0771 241.337 39.9789 240.847 40.0038Z" stroke="#60B515" stroke-width="2" stroke-linecap="square" stroke-linejoin="round"/>
<path fill-rule="evenodd" clip-rule="evenodd" d="M240.847 95.0038C240.458 95.0235 240.077 95.1207 239.726 95.2895L224.43 102.651C223.628 103.037 223.045 103.766 222.847 104.633L219.074 121.169C218.897 121.939 219.041 122.747 219.471 123.409C219.522 123.489 219.578 123.567 219.637 123.642L230.225 136.901C230.78 137.596 231.621 138 232.512 138L249.491 137.996C250.38 137.997 251.222 137.593 251.777 136.899L262.361 123.638C262.917 122.942 263.125 122.032 262.927 121.165L259.147 104.629C258.949 103.762 258.366 103.033 257.564 102.647L242.266 95.2895C241.824 95.0771 241.337 94.9789 240.847 95.0038Z" stroke="#60B515" stroke-width="2" stroke-linecap="square" stroke-linejoin="round"/>
<path fill-rule="evenodd" clip-rule="evenodd" d="M240.847 150.004C240.458 150.024 240.077 150.121 239.726 150.289L224.43 157.651C223.628 158.037 223.045 158.766 222.847 159.633L219.074 176.169C218.897 176.939 219.041 177.747 219.471 178.409C219.522 178.489 219.578 178.567 219.637 178.642L230.225 191.901C230.78 192.596 231.621 193 232.512 193L249.491 192.996C250.38 192.997 251.222 192.593 251.777 191.899L262.361 178.638C262.917 177.942 263.125 177.032 262.927 176.165L259.147 159.629C258.949 158.762 258.366 158.033 257.564 157.647L242.266 150.289C241.824 150.077 241.337 149.979 240.847 150.004Z" stroke="#60B515" stroke-width="2" stroke-linecap="square" stroke-linejoin="round"/>
<path opacity="0.5" d="M178.816 95.8605C178.816 95.8605 178.523 82.5223 185.022 76.0225C191.522 69.5227 206.86 67.8159 206.86 67.8159" stroke="#ADBBC4" stroke-width="2" stroke-linecap="round" stroke-dasharray="0.1 4.1"/>
<path opacity="0.5" d="M178.816 136.184C178.816 136.184 178.523 149.523 185.022 156.022C191.522 162.522 206.86 164.229 206.86 164.229" stroke="#ADBBC4" stroke-width="2" stroke-linecap="round" stroke-dasharray="0.1 4.1"/>
<line opacity="0.5" x1="184" y1="115" x2="213" y2="115" stroke="#ADBBC4" stroke-width="2" stroke-linecap="round" stroke-dasharray="0.1 4.1"/>
<path fill-rule="evenodd" clip-rule="evenodd" d="M249.667 108.333H246.167V111.833H249.667V108.333ZM246.167 114.75H249.667V118.25H246.167V114.75ZM246.167 121.167H249.667V124.667H246.167V121.167ZM239.75 121.167H243.25V124.667H239.75V121.167ZM243.25 114.75H239.75V118.25H243.25V114.75ZM239.75 108.333H243.25V111.833H239.75V108.333ZM236.833 121.167H233.333V124.667H236.833V121.167ZM233.333 114.75H236.833V118.25H233.333V114.75ZM236.833 108.333H233.333V111.833H236.833V108.333Z" fill="#60B515"/>
<path fill-rule="evenodd" clip-rule="evenodd" d="M233.333 163.333H249.667C250.311 163.333 250.833 163.856 250.833 164.5V178.5C250.833 179.144 250.311 179.667 249.667 179.667H233.333C232.689 179.667 232.167 179.144 232.167 178.5V164.5C232.167 163.856 232.689 163.333 233.333 163.333ZM249.667 164.5H233.333V166.95H249.667V164.5ZM233.333 178.5V167.883H249.667V178.5H233.333ZM239.75 165.083H238.583V166.25H239.75V165.083ZM236.25 165.083H237.417V166.25H236.25V165.083ZM235.083 165.083H233.917V166.25H235.083V165.083Z" fill="#60B515"/>
<path fill-rule="evenodd" clip-rule="evenodd" d="M234.5 55.7775V67.3333C234.663 67.695 236.326 68.3017 239.167 68.5V69.6667C236.477 69.48 233.333 68.8675 233.333 67.3333V55.7367C233.333 53.8992 238.099 53.4033 240.917 53.4033C243.734 53.4033 248.5 53.8758 248.5 55.7367V60.3392H246.277C246.659 60.237 247.017 60.0628 247.333 59.8258V56.8683C245.986 57.5917 243.355 57.93 240.852 57.93C239.106 57.9544 237.364 57.7584 235.667 57.3467V56.5067C237.362 56.9302 239.106 57.1245 240.852 57.0842C244.662 57.0842 246.855 56.3492 247.333 55.8883V55.7133C247.141 55.3342 244.819 54.5467 240.917 54.5467C237.014 54.5467 234.698 55.3342 234.5 55.7775ZM235.667 61.255C236.871 61.5543 238.102 61.734 239.342 61.7917C239.465 61.4919 239.647 61.2201 239.878 60.9925C238.456 60.9647 237.043 60.7689 235.667 60.4092V61.255ZM241.5 61.5H249.667C250.311 61.5 250.833 62.0223 250.833 62.6667V69.6667C250.833 70.311 250.311 70.8333 249.667 70.8333H241.5C240.856 70.8333 240.333 70.311 240.333 69.6667V62.6667C240.333 62.0223 240.856 61.5 241.5 61.5ZM241.5 62.6667V69.6667H249.667V62.6667H241.5ZM235.667 65.1633C236.814 65.4493 237.986 65.6231 239.167 65.6825V64.8658C237.984 64.8083 236.811 64.6264 235.667 64.3233V65.1633ZM242.842 64.0667C242.842 63.8411 243.024 63.6583 243.25 63.6583C243.475 63.6583 243.658 63.8411 243.658 64.0667V68.4358C243.658 68.6613 243.475 68.8442 243.25 68.8442C243.024 68.8442 242.842 68.6613 242.842 68.4358V64.0667ZM245.583 63.7283C245.358 63.7283 245.175 63.9111 245.175 64.1367V68.5C245.175 68.7255 245.358 68.9083 245.583 68.9083C245.809 68.9083 245.992 68.7255 245.992 68.5V64.1367C245.992 63.9111 245.809 63.7283 245.583 63.7283ZM247.508 64.0667C247.508 63.8411 247.691 63.6583 247.917 63.6583C248.142 63.6583 248.325 63.8411 248.325 64.0667V68.4358C248.325 68.6613 248.142 68.8442 247.917 68.8442C247.691 68.8442 247.508 68.6613 247.508 68.4358V64.0667Z" fill="#60B515"/>
<g opacity="0.5">
<path fill-rule="evenodd" clip-rule="evenodd" d="M129.841 77.0039C129.434 77.0241 129.035 77.1235 128.669 77.2962L112.677 84.8289C111.838 85.2236 111.229 85.9701 111.022 86.8572L107.077 103.777C106.893 104.565 107.043 105.392 107.492 106.07C107.546 106.152 107.604 106.231 107.666 106.308L118.735 119.875C119.315 120.586 120.195 121 121.126 121L138.876 120.996C139.807 120.997 140.687 120.583 141.267 119.873L152.332 106.304C152.913 105.592 153.13 104.661 152.923 103.773L148.972 86.8532C148.765 85.9661 148.156 85.2196 147.317 84.8248L131.323 77.2962C130.862 77.0789 130.352 76.9784 129.841 77.0039Z" stroke="#ADBBC4" stroke-width="2"/>
<path d="M164.523 97.1937V94.8859C164.754 77.4068 151.756 62.5717 134.398 60.5036C117.04 58.4356 100.921 69.8017 97.0391 86.8459C84.7249 87.4949 75.1294 97.7671 75.3197 110.097C75.51 122.427 85.418 132.398 97.7463 132.666H159.237C168.178 132.629 175.763 126.091 177.117 117.253C178.47 108.415 173.192 99.906 164.672 97.1937H164.523Z" stroke="#ADBBC4" stroke-width="2"/>
<path d="M136.495 53.2717C131.523 46.516 123.665 42.4905 115.278 42.4028H115.017C101.601 42.4183 90.2691 52.3654 88.5151 65.6667L88.2173 69.0539H82.5596C76.3861 69.044 70.542 72.5704 68.1101 78.2447C65.6783 83.919 66.8676 90.497 71.1323 94.9606" stroke="#ADBBC4" stroke-width="2" stroke-linecap="round"/>
<path d="M117.734 27.8117C112.914 23.483 106.681 21.0611 100.203 21H99.9422C86.609 21.1057 75.3874 31.0099 73.6261 44.2267L73.0306 47.465H67.3728C58.8646 47.5264 51.9998 54.441 52 62.9494C52.0105 66.2209 53.067 69.4034 55.015 72.0317" stroke="#ADBBC4" stroke-width="2" stroke-linecap="round"/>
</g>
<defs>
<linearGradient id="paint0_linear_501_22470" x1="224" y1="45" x2="110" y2="159" gradientUnits="userSpaceOnUse">
<stop offset="0.223958" stop-color="#00C1D5"/>
<stop offset="1" stop-color="#00C1D5" stop-opacity="0"/>
</linearGradient>
<linearGradient id="paint1_linear_501_22470" x1="141" y1="83" x2="27" y2="197" gradientUnits="userSpaceOnUse">
<stop offset="0.223958" stop-color="#0091DA"/>
<stop offset="1" stop-color="#0091DA" stop-opacity="0"/>
</linearGradient>
<linearGradient id="paint2_linear_501_22470" x1="-1.78402e-06" y1="114" x2="90.9964" y2="-16.0907" gradientUnits="userSpaceOnUse">
<stop stop-color="#1A428A" stop-opacity="0"/>
<stop offset="0.9987" stop-color="#1A428A"/>
</linearGradient>
</defs>
</svg>

<svg width="338" height="197" fill="none" xmlns="http://www.w3.org/2000/svg"><path opacity=".15" fill-rule="evenodd" clip-rule="evenodd" d="M110 159h114L338 45H224L110 159Z" fill="url(#a)"/><path opacity=".15" fill-rule="evenodd" clip-rule="evenodd" d="M27 197h114L255 83H141L27 197Z" fill="url(#b)"/><path opacity=".15" fill-rule="evenodd" clip-rule="evenodd" d="M0 114h114L228 0H114L0 114Z" fill="url(#c)"/><path clip-rule="evenodd" d="M240.847 40.004c-.389.02-.77.117-1.121.285l-15.296 7.362a2.923 2.923 0 0 0-1.583 1.982l-3.773 16.536a2.915 2.915 0 0 0 .563 2.473L230.225 81.9a2.925 2.925 0 0 0 2.287 1.1l16.979-.004c.889 0 1.731-.403 2.286-1.097l10.584-13.261a2.919 2.919 0 0 0 .566-2.473l-3.78-16.536a2.923 2.923 0 0 0-1.583-1.982l-15.298-7.358a2.93 2.93 0 0 0-1.419-.285ZM240.847 95.004c-.389.02-.77.117-1.121.285l-15.296 7.362a2.922 2.922 0 0 0-1.583 1.982l-3.773 16.536a2.914 2.914 0 0 0 .563 2.473l10.588 13.259a2.925 2.925 0 0 0 2.287 1.099l16.979-.004a2.924 2.924 0 0 0 2.286-1.097l10.584-13.261a2.92 2.92 0 0 0 .566-2.473l-3.78-16.536a2.922 2.922 0 0 0-1.583-1.982l-15.298-7.358a2.93 2.93 0 0 0-1.419-.285ZM240.847 150.004c-.389.02-.77.117-1.121.285l-15.296 7.362a2.922 2.922 0 0 0-1.583 1.982l-3.773 16.536a2.914 2.914 0 0 0 .563 2.473l10.588 13.259a2.925 2.925 0 0 0 2.287 1.099l16.979-.004a2.924 2.924 0 0 0 2.286-1.097l10.584-13.261a2.92 2.92 0 0 0 .566-2.473l-3.78-16.536a2.922 2.922 0 0 0-1.583-1.982l-15.298-7.358a2.933 2.933 0 0 0-1.419-.285Z" stroke="#60B515" stroke-width="2" stroke-linecap="square" stroke-linejoin="round"/><path opacity=".5" d="M178.816 95.86s-.293-13.338 6.206-19.838c6.5-6.5 21.838-8.206 21.838-8.206M178.816 136.184s-.293 13.339 6.206 19.838c6.5 6.5 21.838 8.207 21.838 8.207M184 115h29" stroke="#ADBBC4" stroke-width="2" stroke-linecap="round" stroke-dasharray="0.1 4.1"/><path fill-rule="evenodd" clip-rule="evenodd" d="M249.667 108.333h-3.5v3.5h3.5v-3.5Zm-3.5 6.417h3.5v3.5h-3.5v-3.5Zm0 6.417h3.5v3.5h-3.5v-3.5Zm-6.417 0h3.5v3.5h-3.5v-3.5Zm3.5-6.417h-3.5v3.5h3.5v-3.5Zm-3.5-6.417h3.5v3.5h-3.5v-3.5Zm-2.917 12.834h-3.5v3.5h3.5v-3.5Zm-3.5-6.417h3.5v3.5h-3.5v-3.5Zm3.5-6.417h-3.5v3.5h3.5v-3.5ZM233.333 163.333h16.334c.644 0 1.166.523 1.166 1.167v14c0 .644-.522 1.167-1.166 1.167h-16.334a1.167 1.167 0 0 1-1.166-1.167v-14c0-.644.522-1.167 1.166-1.167Zm16.334 1.167h-16.334v2.45h16.334v-2.45Zm-16.334 14v-10.617h16.334V178.5h-16.334Zm6.417-13.417h-1.167v1.167h1.167v-1.167Zm-3.5 0h1.167v1.167h-1.167v-1.167Zm-1.167 0h-1.166v1.167h1.166v-1.167ZM234.5 55.778v11.555c.163.362 1.826.969 4.667 1.167v1.167c-2.69-.187-5.834-.8-5.834-2.334V55.737c0-1.838 4.766-2.334 7.584-2.334 2.817 0 7.583.473 7.583 2.334v4.602h-2.223a3.09 3.09 0 0 0 1.056-.513v-2.958c-1.347.724-3.978 1.062-6.481 1.062a20.761 20.761 0 0 1-5.185-.583v-.84c1.695.423 3.439.617 5.185.577 3.81 0 6.003-.735 6.481-1.196v-.175c-.192-.379-2.514-1.166-6.416-1.166-3.903 0-6.219.787-6.417 1.23Zm1.167 5.477c1.204.3 2.435.479 3.675.537a2.4 2.4 0 0 1 .536-.8 18.042 18.042 0 0 1-4.211-.583v.846Zm5.833.245h8.167c.644 0 1.166.522 1.166 1.167v7c0 .644-.522 1.166-1.166 1.166H241.5a1.167 1.167 0 0 1-1.167-1.166v-7c0-.645.523-1.167 1.167-1.167Zm0 1.167v7h8.167v-7H241.5Zm-5.833 2.496c1.147.286 2.319.46 3.5.52v-.817a16.861 16.861 0 0 1-3.5-.543v.84Zm7.175-1.096a.408.408 0 1 1 .816 0v4.369a.408.408 0 0 1-.816 0v-4.37Zm2.741-.339a.408.408 0 0 0-.408.409V68.5a.408.408 0 0 0 .817 0v-4.363a.409.409 0 0 0-.409-.409Zm1.925.339a.409.409 0 0 1 .817 0v4.369a.408.408 0 0 1-.817 0v-4.37Z" fill="#60B515"/><g opacity=".5" stroke="#ADBBC4" stroke-width="2"><path clip-rule="evenodd" d="M129.841 77.004a3.11 3.11 0 0 0-1.172.292l-15.992 7.533a3.002 3.002 0 0 0-1.655 2.028l-3.945 16.92a2.938 2.938 0 0 0 .589 2.531l11.069 13.567a3.084 3.084 0 0 0 2.391 1.125l17.75-.004a3.083 3.083 0 0 0 2.391-1.123l11.065-13.569a2.94 2.94 0 0 0 .591-2.531l-3.951-16.92a3.002 3.002 0 0 0-1.655-2.028l-15.994-7.529a3.115 3.115 0 0 0-1.482-.292Z"/><path d="M164.523 97.194v-2.308c.231-17.48-12.767-32.314-30.125-34.382-17.358-2.068-33.477 9.298-37.359 26.342-12.314.649-21.91 10.921-21.72 23.251.191 12.33 10.099 22.301 22.427 22.569h61.491c8.941-.037 16.526-6.575 17.88-15.413 1.353-8.838-3.925-17.347-12.445-20.06h-.149Z"/><path d="M136.495 53.272a26.69 26.69 0 0 0-21.217-10.87h-.261c-13.416.016-24.748 9.963-26.502 23.265l-.298 3.387H82.56c-6.174-.01-12.018 3.516-14.45 9.19a15.41 15.41 0 0 0 3.022 16.717M117.734 27.812A26.613 26.613 0 0 0 100.203 21h-.26c-13.334.106-24.556 10.01-26.317 23.227l-.595 3.238h-5.658C58.865 47.526 52 54.441 52 62.949a15.336 15.336 0 0 0 3.015 9.083" stroke-linecap="round"/></g><defs><linearGradient id="a" x1="224" y1="45" x2="110" y2="159" gradientUnits="userSpaceOnUse"><stop offset=".224" stop-color="#00C1D5"/><stop offset="1" stop-color="#00C1D5" stop-opacity="0"/></linearGradient><linearGradient id="b" x1="141" y1="83" x2="27" y2="197" gradientUnits="userSpaceOnUse"><stop offset=".224" stop-color="#0091DA"/><stop offset="1" stop-color="#0091DA" stop-opacity="0"/></linearGradient><linearGradient id="c" x1="0" y1="114" x2="90.996" y2="-16.091" gradientUnits="userSpaceOnUse"><stop stop-color="#1A428A" stop-opacity="0"/><stop offset=".999" stop-color="#1A428A"/></linearGradient></defs></svg>
